X:2642
T:Horn Dance (well maybe)
O:england
M:6/8
C:
S:Bruno
N:loosely inspired by Abbots Bromley
A:Chipping under Oakwood
R:Jig
%P:(ABC)$^{\infty}$
P:(ABC)8
K:Em
I:speed 200
P:A
e | B2 e G2 e | B2 e E2 G | F>GA GAB | AGF G2 \
e | B2 e G2 e | B2 e E2 G | F>GA GAB | AGF E2 ||\
P:B
e | c2 c c>de | A2 A A>Bc | FGA GFE | DEF B,2 \
g | e2 e e>fg | c2 c c>de | dcB ABA | G3-G2   ||\
P:C
|: z | B>cB c2 c | B>cB e2 e | B>cB AGF | G2 F E2 :|


